src/download.svg

<svg viewBox="0 0 16 16" fill="none" xmlns="http://www.w3.org/2000/svg"><path fill-rule="evenodd" clip-rule="evenodd" d="M2 7v7h12V7h-1v6H3V7H2Zm6.5 2.79L10.29 8l.71.71L8.71 11l-.71.71-3-3L5.71 8 7.5 9.79V2h1v7.79Z" fill="#111111"/></svg>

<svg viewBox="0 0 16 16" fill="none" xmlns="http://www.w3.org/2000/svg"><path fill-rule="evenodd" clip-rule="evenodd" d="M2 7V14H14V7H13V13H3V7H2ZM8.5 9.79L10.29 8L11 8.71L8.71 11L8 11.71L5 8.71L5.71 8L7.5 9.79V2H8.5V9.79Z" fill="#111111"/></svg>
